X:05
T:Ap Shenkin. 2voices. Dix.05
M:6/8
L:1/8
Q:3/8=100
S:Anon. MS dated 1811, from Dixon collection, Holton le Moor, Lincs.
R:jig
N:Repeat marks added at start
O:England;Lincolnshire;Holton le Moor
Z:vmp.R.Greig 2010 <http://www.village-music-project.org.uk>
K:F
[V:1]|:(c/B/)|A2A Afe|d2d def|cdc cBA|AGG G2{d}c/B/|
[V:2]|:z|F,3-F,2A,|B,3B,3|(A,3-F,3)|(G,3C,2)z|
[V:1]A2A Afe|d2d def|cdc BAG|F2AF2:|
[V:2]F,3-F,2A,|B,3B,3|C3C,3|F,3F,,2:|
[V:1]|:f/g/|a2fg2e|{g}fef cBA|B>cd (cf)A| [AF][GE][GE][G2E2](f/g/)|
[V:2]|:z[D3F,3][C3C,3]|[A,3D,3][F,3A,,3]|[G,3E,,3][F,3F,,3]|C,,3C,2z|
[V:1]a2fg2e|fed gfe|agf efd|”8vo”cfe dcB|
[V:2][C3F,3][C3E,3]|[=B,3D,3][C3E,3]|[C3F,3][=B,3G,3]|[C3C,3]z2z|
[V:1]A2A Afe|d2d def|cdc cBA| AGG G2c/B/|
[V:2]F,A,C F,A,C|F,B,D F,B,D|F,A,C F,A,C|E,A,C C,A,C|
[V:1]A2A Afe|d2d def|cdc {c}BAG|”_repeat marks added”F2AF2:|
[V:2]F,A,C F,A,C|F,B,D F,B,D|F,A,C E,G,C|F,A,C A,2:|

